SVG-Logos/Observability/Grafana/Icons/grafana-agent-icon.svg

<svg xmlns="http://www.w3.org/2000/svg" width="30" height="24" viewBox="0 0 30 24" fill="none">
<g clip-path="url(#clip0)">
<path d="M27.7005 19.1552L27.4149 19.0534V14.7176C27.4149 13.3333 26.293 12.2137 24.906 12.2137H24.1512V11.4606C24.1512 6.41221 20.1736 2.2799 15.1965 1.99491V0.529262C15.2169 0.244275 14.9721 0 14.6866 0C14.401 0 14.1562 0.244275 14.1562 0.529262V1.99491C9.17911 2.2799 5.20149 6.41221 5.20149 11.4606V12.2137H4.46716C3.0597 12.2137 1.93781 13.3333 1.93781 14.7176V19.0534L1.65224 19.1552C0.673134 19.5013 0 20.4377 0 21.4962V23.43C0 23.7354 0.244776 23.9796 0.550746 23.9796C0.856716 23.9796 1.10149 23.7354 1.10149 23.43V21.4962C1.10149 20.7226 1.73383 20.112 2.48856 20.112C3.26368 20.112 3.87562 20.743 3.87562 21.4962V23.43C3.87562 23.7354 4.1204 23.9796 4.42637 23.9796C4.73234 23.9796 4.97711 23.7354 4.97711 23.43V21.4962C4.97711 20.4377 4.30398 19.5013 3.30448 19.1349L3.0597 19.0534V14.7176C3.0597 13.944 3.69204 13.3333 4.44677 13.3333H5.18109V15.1043H24.1716V13.3333H24.9264C25.7015 13.3333 26.3134 13.9644 26.3134 14.7176V19.0534L26.0279 19.1552C25.0284 19.5013 24.3552 20.458 24.3552 21.5165V23.4504C24.3552 23.7557 24.6 24 24.906 24C25.2119 24 25.4567 23.7557 25.4567 23.4504V21.5165C25.4567 20.743 26.0891 20.1323 26.8438 20.1323C27.6189 20.1323 28.2308 20.7634 28.2308 21.5165V23.4504C28.2308 23.7557 28.4756 24 28.7816 24C29.0876 24 29.3323 23.7557 29.3323 23.4504V21.5165C29.3731 20.4377 28.7 19.5013 27.7005 19.1552ZM11.8104 6.14758H17.5423C19.1537 6.14758 20.5 7.26718 20.8672 8.77354H18.9701L18.2562 7.24682C18.1746 7.06361 17.9706 6.92112 17.7667 6.94148C17.5627 6.94148 17.3587 7.06361 17.2771 7.26718L16.6448 8.75318H14.8294H14.809H12.5652C12.3612 8.75318 12.1572 8.87532 12.0756 9.05852L11.7289 9.8117L11.4025 9.07888C11.3209 8.87532 11.1169 8.75318 10.9129 8.75318H8.48557C8.85274 7.24682 10.199 6.14758 11.8104 6.14758ZM17.5423 13.0076H16.502C16.1552 12.9873 15.9104 12.8448 15.7065 12.5191L15.1965 11.6031C15.1353 11.5216 15.0741 11.4402 14.9721 11.3791C14.6866 11.2163 14.3194 11.3181 14.1562 11.6031L13.6667 12.458C13.6667 12.458 13.6667 12.458 13.6667 12.4784C13.4831 12.8041 13.2587 12.9669 12.9527 13.0076H11.8104C9.99503 13.0076 8.52637 11.6031 8.38358 9.83206H10.5458L11.1985 11.3588C11.2801 11.5623 11.4637 11.6845 11.6881 11.6845C11.892 11.6845 12.096 11.5623 12.1776 11.3791L12.8915 9.85242H14.5234H14.5438H16.9711C17.1955 9.85242 17.3791 9.73028 17.4607 9.52672L17.7871 8.79389L18.1338 9.54707C18.2154 9.73028 18.4194 9.85242 18.6234 9.85242H20.9488C20.8264 11.6031 19.3577 13.0076 17.5423 13.0076ZM5.18109 15.8982H24.1716V18.4835C24.1716 19.7863 23.4781 20.9873 22.3358 21.6387C20.0104 22.9822 17.3587 23.6743 14.6662 23.6743C11.9736 23.6743 9.32189 22.9618 6.99652 21.6387C5.87463 20.9873 5.1607 19.7863 5.1607 18.4835V15.8982H5.18109Z" fill="url(#paint0_linear)"/>
</g>
<defs>
<linearGradient id="paint0_linear" x1="14.9671" y1="28.8891" x2="13.6956" y2="-0.397213" gradientUnits="userSpaceOnUse">
<stop stop-color="#F9EA1C"/>
<stop offset="1" stop-color="#ED5A29"/>
</linearGradient>
<clipPath id="clip0">
<rect width="29.3731" height="24" fill="white"/>
</clipPath>
</defs>
</svg>

<svg xmlns="http://www.w3.org/2000/svg" fill="none" viewBox="0 0 30 24"><g clip-path="url(#a)"><path fill="url(#b)" d="m27.7 19.155-.285-.102v-4.335a2.505 2.505 0 0 0-2.509-2.504h-.755v-.753c0-5.049-3.977-9.181-8.954-9.466V.529a.51.51 0 0 0-.51-.529.54.54 0 0 0-.53.53v1.465C9.178 2.28 5.2 6.412 5.2 11.46v.753h-.734a2.51 2.51 0 0 0-2.53 2.504v4.335l-.285.102A2.487 2.487 0 0 0 0 21.496v1.934c0 .305.245.55.55.55.307 0 .551-.245.551-.55v-1.934a1.387 1.387 0 0 1 2.775 0v1.934c0 .305.244.55.55.55.306 0 .551-.245.551-.55v-1.934a2.524 2.524 0 0 0-1.673-2.361l-.244-.082v-4.335c0-.774.632-1.385 1.387-1.385h.734v1.771h18.99v-1.77h.755c.776 0 1.387.63 1.387 1.384v4.335l-.285.102a2.504 2.504 0 0 0-1.673 2.361v1.934c0 .306.245.55.551.55.306 0 .55-.244.55-.55v-1.933a1.387 1.387 0 0 1 2.775 0v1.933c0 .306.245.55.55.55.307 0 .551-.244.551-.55v-1.933a2.397 2.397 0 0 0-1.631-2.362ZM11.81 6.148h5.732a3.43 3.43 0 0 1 3.325 2.626H18.97l-.714-1.527c-.081-.183-.285-.326-.49-.306a.53.53 0 0 0-.489.326l-.632 1.486h-4.08a.545.545 0 0 0-.49.306l-.346.753-.326-.733a.53.53 0 0 0-.49-.326H8.486a3.411 3.411 0 0 1 3.324-2.605Zm5.732 6.86h-1.04c-.347-.02-.592-.163-.795-.489l-.51-.916a.782.782 0 0 0-.225-.224.601.601 0 0 0-.816.224l-.49.855v.02c-.183.326-.407.489-.713.53H11.81a3.444 3.444 0 0 1-3.426-3.176h2.162l.652 1.527a.51.51 0 0 0 .49.325.545.545 0 0 0 .49-.305l.713-1.527h4.08a.51.51 0 0 0 .49-.325l.326-.733.347.753a.545.545 0 0 0 .49.305h2.325a3.408 3.408 0 0 1-3.407 3.156Zm-12.36 2.89h18.99v2.585a3.625 3.625 0 0 1-1.836 3.156 15.332 15.332 0 0 1-7.67 2.035c-2.692 0-5.344-.712-7.67-2.035a3.667 3.667 0 0 1-1.835-3.155v-2.586h.02Z"/></g><defs><linearGradient id="b" x1="14.967" x2="13.696" y1="28.889" y2="-.397" gradientUnits="userSpaceOnUse"><stop stop-color="#F9EA1C"/><stop offset="1" stop-color="#ED5A29"/></linearGradient><clipPath id="a"><path fill="#fff" d="M0 0h29.373v24H0z"/></clipPath></defs></svg>
